voiceMemo/Assets.xcassets/TodoList/writeBtn.imageset/writeBtn.svg

<svg width="80" height="80" viewBox="0 0 80 80" fill="none" xmlns="http://www.w3.org/2000/svg">
<circle cx="38" cy="38" r="25" fill="#20CE77"/>
<g clip-path="url(#clip0_1_1763)">
<path fill-rule="evenodd" clip-rule="evenodd" d="M28 43.7778V48H32.4333L45.2667 35.6667L40.8333 31.4444L28 43.7778ZM48.65 32.4444C49.1167 32 49.1167 31.3333 48.65 30.8889L45.9667 28.3333C45.5 27.8889 44.8 27.8889 44.3333 28.3333L42.2333 30.3333L46.6667 34.5556L48.65 32.4444Z" fill="white"/>
</g>
<defs>
<clipPath id="clip0_1_1763">
<rect width="21" height="20" fill="white" transform="translate(28 28)"/>
</clipPath>
</defs>
</svg>

<?xml version="1.0"?>
<svg width="80" height="80" xmlns="http://www.w3.org/2000/svg" xmlns:svg="http://www.w3.org/2000/svg">
 <defs>
  <clipPath id="clip0_1_1763">
   <rect fill="white" height="20" id="svg_1" transform="translate(28 28)" width="21"/>
  </clipPath>
 </defs>
 <g class="layer">
  <title>Layer 1</title>
  <circle cx="38" cy="38" fill="#ee5fa7" id="svg_2" r="25"/>
  <g clip-path="url(#clip0_1_1763)" id="svg_3" transform="matrix(1 0 0 1 0 0)">
   <path clip-rule="evenodd" d="m28,43.78l0,4.22l4.43,0l12.84,-12.33l-4.44,-4.23l-12.83,12.34zm20.65,-11.34c0.47,-0.44 0.47,-1.11 0,-1.55l-2.68,-2.56c-0.47,-0.44 -1.17,-0.44 -1.64,0l-2.1,2l4.44,4.23l1.98,-2.12z" fill="white" fill-rule="evenodd" id="svg_4"/>
  </g>
 </g>
</svg>
